svgs/fritz_wlan.svg

<svg xmlns="http://www.w3.org/2000/svg" viewBox="0 0 192 192"><path fill="none" stroke="#000" stroke-linecap="round" stroke-linejoin="round" stroke-width="8" d="m94.543 52.548.037-33.563M31.957 54.638V16.491h19.098M31.957 35.564h12.414m13.775 23.842V27.128H68.65c2.312-.014 4.57.706 6.446 2.057a10.89 10.89 0 0 1 3.991 12.216 10.894 10.894 0 0 1-3.991 5.458 10.926 10.926 0 0 1-6.446 2.057H58.146M113.715 59V25.99m-9.733-.367h19.466m5.325-7.339h19.466l-19.466 33.013h19.466m-68.681 8.11L69.421 48.88m90.571-28.761-1.837 18.34"/><path d="M157.605 42.861a2.933 2.933 0 1 0 0 5.869 2.94 2.94 0 0 0 2.938-2.935 2.933 2.933 0 0 0-2.938-2.934Z"/><path fill="none" stroke="#000" stroke-linecap="round" stroke-linejoin="round" stroke-width="8" d="M119.646 137.401a31.518 31.518 0 0 0-40.225-.109v.109m20.033 12.873a12.634 12.634 0 0 0-8.926 3.693 12.603 12.603 0 0 0-3.697 8.914c0 3.342 1.331 6.551 3.697 8.915a12.636 12.636 0 0 0 17.852 0 12.594 12.594 0 0 0 2.006-15.218 12.623 12.623 0 0 0-10.932-6.304Zm39.392-34.67a61.967 61.967 0 0 0-78.785 0m97.712-22.879a91.612 91.612 0 0 0-116.763 0"/></svg>

<svg
    xmlns="http://www.w3.org/2000/svg"
    viewBox="0 0 192 192"
    id="vector">
    <path
        id="path"
        d="M 94.543 52.548 L 94.58 18.985 M 31.957 54.638 L 31.957 16.491 L 51.055 16.491 M 31.957 35.564 L 44.371 35.564 M 58.146 59.406 L 58.146 27.128 L 68.65 27.128 C 70.962 27.114 73.22 27.834 75.096 29.185 C 76.972 30.535 78.37 32.447 79.087 34.643 C 79.804 36.838 79.804 39.206 79.087 41.401 C 78.37 43.597 76.972 45.508 75.096 46.859 C 73.22 48.209 70.962 48.93 68.65 48.916 L 58.146 48.916 M 113.715 59 L 113.715 25.99 M 103.982 25.623 L 123.448 25.623 M 128.773 18.284 L 148.239 18.284 L 128.773 51.297 L 148.239 51.297 M 79.558 59.407 L 69.421 48.88 M 159.992 20.119 L 158.155 38.459"
        fill="none"
        stroke="#000000"
        stroke-width="8"
        stroke-linecap="round"
        stroke-linejoin="round"/>
    <path
        id="path_1"
        d="M 157.605 42.861 C 156.826 42.861 156.078 43.17 155.527 43.72 C 154.976 44.27 154.666 45.017 154.666 45.795 C 154.666 46.573 154.976 47.32 155.527 47.87 C 156.078 48.42 156.826 48.73 157.605 48.73 C 158.384 48.73 159.131 48.42 159.682 47.87 C 160.233 47.32 160.543 46.573 160.543 45.795 C 160.543 45.017 160.233 44.27 159.682 43.72 C 159.131 43.17 158.384 42.861 157.605 42.861 Z"
        fill="#000000"
        stroke-width="1"/>
    <path
        id="path_2"
        d="M 119.646 137.401 C 114.008 132.7 106.897 130.114 99.553 130.094 C 92.209 130.074 85.084 132.622 79.421 137.292 L 79.421 137.401 M 99.454 150.274 C 96.107 150.274 92.895 151.603 90.528 153.967 C 88.162 156.33 86.831 159.539 86.831 162.881 C 86.831 166.223 88.162 169.432 90.528 171.796 C 92.894 174.159 96.107 175.488 99.454 175.488 C 102.8 175.488 106.013 174.159 108.38 171.796 C 110.746 169.433 112.077 166.224 112.077 162.882 C 112.077 160.669 111.494 158.494 110.386 156.578 C 109.278 154.662 107.685 153.07 105.766 151.963 C 103.847 150.857 101.67 150.274 99.454 150.274 Z M 138.846 115.604 C 127.759 106.47 113.826 101.471 99.453 101.471 C 85.081 101.471 71.147 106.47 60.061 115.604 M 157.773 92.725 C 141.36 79.147 120.703 71.712 99.391 71.712 C 78.079 71.712 57.422 79.147 41.01 92.725"
        fill="none"
        stroke="#000000"
        stroke-width="8"
        stroke-linecap="round"
        stroke-linejoin="round"/>
</svg>
